X: 100052
M: C|
L: 1/8
K: A
|:\
vA,2C>E (E>A)A>c | (B>A)G>A (B>c)d>f | (e>f)e>c (e>a)e>c | (e>f)e>c (d>c)B>A |
|: (uc>d) |\
(ea)ec (ea)e=g | fedc d2(de) | (f/=g/a) fd (f/g/a) fa | ^gfe^d e2((3efg) |
(a>g)a>g (a>e)c>e | (f^e)f>e (f>d)B>c | d>(cB>A) G>fe>d | c2A2 A2z2 :|


